!!!XEN: We have salt
!!!AGN: Unclassified
!!!COM: Anonymous
!!!CNT: Native American -- Ojibway
!!!TXO: Ojibway
!!!MLC: Waba'cing village, Red Lake reservation, northern Minnesota, U.S.A.
!!!MRD: 1909-1912///
!!!MPN: Henry Selkirk
**kern
*MM160
*Imale
*k[b-e-a-d-]
*clefF4
*M2/4
=1
4A-
4A-
=2
*M3/4
4A-
4A-
8c
8c
=3
8c
8A-
4A-
8A-
8A-
=4
4A-
4F
8A-
8A-
=5
4c
4A-
8F
8F
=6
4E-
4E-
8A-
8A-
=7
4c
4A-
8F
8F
=8
4E-
4C
4E-
=9
4F
8F
8F
8E-
8C
=10
*M2/4
4AA-
4C
=11
4AA-
8AA-
8AA-
=12
2AA-
==
*-
!!!OCL: Frances Densmore
!!!YOR: Chippewa [i.e., Ojibway] Music--II, Bulletin 53 of the Bureau of American Ethnology, Smitsonian Institution
!!!ONM: 168
!!!PPG: 291
!!!PUB: published
!!!PPR: Government Printing Office
!!!PPP: Washington, D.C.
!!!PDT: 1912///
!!!EST: missing clef changes, text, drum tempo, and drum part
!!!YEC: Copyright 1998 Paul von Hippel
!!!YEM: Rights to all derivate electronic formats reserved.
!!!EFL: 41/42
